img/hero/people.svg

<svg width="58" height="57" viewBox="0 0 58 57" fill="none" xmlns="http://www.w3.org/2000/svg">
<path d="M27.8005 21.6493H28.5337C28.8343 21.6493 29.0781 21.4058 29.0781 21.1049C29.0781 20.8044 28.8343 20.5606 28.5337 20.5606H28.0033V19.0367C28.0033 18.7359 27.7597 18.4923 27.4589 18.4923C27.1584 18.4923 26.9146 18.7359 26.9146 19.0367V20.7656C26.9146 21.2529 27.312 21.6493 27.8005 21.6493Z" fill="white"/>
<path d="M25.2711 19.7795V18.5519C25.2711 18.2511 25.0275 18.0075 24.7267 18.0075C24.4262 18.0075 24.1824 18.2511 24.1824 18.5519V19.7795C24.1824 20.08 24.4262 20.3239 24.7267 20.3239C25.0275 20.3239 25.2711 20.08 25.2711 19.7795Z" fill="white"/>
<path d="M25.7585 17.6012C25.8646 17.7067 26.0035 17.7594 26.1421 17.7594C26.2819 17.7594 26.422 17.7058 26.5283 17.5989C26.7401 17.3857 26.7392 17.0409 26.526 16.8292C25.5337 15.8431 23.9196 15.8431 22.9276 16.8292C22.7141 17.0409 22.7133 17.3857 22.9251 17.5989C23.1371 17.8121 23.4819 17.8133 23.6951 17.6012C24.2638 17.0358 25.1895 17.0358 25.7585 17.6012Z" fill="white"/>
<path d="M31.2255 18.0075C30.925 18.0075 30.6812 18.2511 30.6812 18.5519V19.7795C30.6812 20.08 30.925 20.3239 31.2255 20.3239C31.526 20.3239 31.7699 20.08 31.7699 19.7795V18.5519C31.7699 18.2511 31.526 18.0075 31.2255 18.0075Z" fill="white"/>
<path d="M30.1943 17.6012C30.763 17.0359 31.689 17.0359 32.2577 17.6012C32.364 17.7067 32.5027 17.7594 32.6416 17.7594C32.7814 17.7594 32.9211 17.7058 33.0275 17.5989C33.2395 17.3857 33.2384 17.041 33.0252 16.8292C32.0332 15.8431 30.4188 15.8431 29.4268 16.8289C29.2136 17.041 29.2124 17.3854 29.4242 17.5989C29.6363 17.8121 29.981 17.8133 30.1943 17.6012Z" fill="white"/>
<path d="M30.0034 22.0182H25.9891C25.4297 22.0182 24.9744 22.4721 24.9744 23.03C24.9744 24.6878 26.3299 26.0368 27.9964 26.0368C29.6624 26.0368 31.0182 24.6878 31.0182 23.03C31.0182 22.4721 30.5628 22.0182 30.0034 22.0182ZM27.9964 24.948C26.9562 24.948 26.1056 24.129 26.0645 23.1069H29.9277C29.8869 24.129 29.0361 24.948 27.9964 24.948Z" fill="white"/>
<path d="M47.3177 27.5856V22.7332C47.3177 22.1982 46.8814 21.7632 46.3453 21.7632H42.3196C41.7831 21.7632 41.3471 22.1982 41.3471 22.7332V27.5856C41.3471 29.0384 42.4009 30.2501 43.7879 30.5056V33.1278H43.2869C42.8719 33.1278 42.499 33.3065 42.2382 33.5894L40.1061 30.6456C39.851 28.7761 38.2369 27.3301 36.2888 27.3301H34.0621L33.3374 25.8102C34.2211 24.9494 34.8607 23.8414 35.1414 22.5996H35.7076C36.6954 22.5996 37.4992 21.7987 37.4992 20.8143V19.3122C37.4992 18.5892 37.0654 17.9658 36.4442 17.6854V15.9619C36.4442 15.6613 36.2004 15.4175 35.8998 15.4175C35.5993 15.4175 35.3555 15.6613 35.3555 15.9619V17.5269H35.2849C35.1718 15.7991 34.4298 14.3322 33.1205 13.2636C32.865 13.0549 32.5895 12.8653 32.2977 12.694V11.865C32.2977 11.4247 32.23 11 32.1046 10.6005C32.3071 10.5407 32.5206 10.5078 32.7423 10.5078H33.1009C34.3442 10.5078 35.3555 11.5132 35.3555 12.7487V13.349C35.3555 13.6495 35.5993 13.8933 35.8998 13.8933C36.2004 13.8933 36.4442 13.6495 36.4442 13.349V12.7487C36.4442 10.9127 34.9444 9.41909 33.1009 9.41909H32.7423C32.3567 9.41909 31.987 9.48571 31.6422 9.60593C30.8858 8.41117 29.5498 7.61505 28.0299 7.61505H23.8165C21.463 7.61505 19.5487 9.52172 19.5487 11.865V17.6854C18.9272 17.9658 18.4937 18.5892 18.4937 19.3122V20.8143C18.4937 21.799 19.2972 22.5996 20.285 22.5996H20.8512C21.1319 23.8417 21.7715 24.9497 22.6552 25.8102L21.9305 27.3304H19.2283C17.1036 27.3304 15.375 29.05 15.375 31.1636V43.863C15.375 44.3668 15.785 44.7765 16.2888 44.7765H39.2284C39.7322 44.7765 40.1421 44.3666 40.1421 43.863V39.8518L41.2099 41.3261C41.7143 42.0224 42.5305 42.4378 43.3938 42.4378C43.9594 42.4378 44.5021 42.2637 44.9625 41.9342C45.5469 41.516 45.9322 40.8963 46.0476 40.1892C46.0773 40.0057 46.0875 39.8217 46.0796 39.6403C46.5894 39.4231 46.9475 38.9187 46.9475 38.3321V37.6636C46.9475 37.3631 46.7039 37.1192 46.4031 37.1192C46.1026 37.1192 45.8587 37.3631 45.8587 37.6636V38.3321C45.8587 38.5158 45.7073 38.6653 45.5216 38.6653H43.2866C43.1007 38.6653 42.9495 38.5158 42.9495 38.3321V37.9712C42.9495 37.8728 42.9938 37.7795 43.0709 37.7158C43.1959 37.6126 43.2685 37.4586 43.2685 37.2964C43.2685 37.134 43.1959 36.9803 43.0709 36.8768C42.9938 36.813 42.9495 36.7197 42.9495 36.6214V36.2604C42.9495 36.1618 42.9938 36.0688 43.0709 36.005C43.1959 35.9015 43.2682 35.7478 43.2682 35.5857C43.2682 35.4232 43.1959 35.2695 43.0709 35.1661C42.9938 35.1023 42.9493 35.009 42.9493 34.9106V34.5497C42.9493 34.366 43.1007 34.2166 43.2866 34.2166H45.5214C45.7073 34.2166 45.8587 34.366 45.8587 34.5497V35.1233C45.8587 35.4238 46.1023 35.6676 46.4031 35.6676C46.7036 35.6676 46.9475 35.4238 46.9475 35.1233V34.5497C46.9475 33.7658 46.3076 33.1278 45.5214 33.1278H44.8766V30.5056C46.2636 30.2501 47.3177 29.0384 47.3177 27.5856ZM34.7811 31.3686L33.3275 32.389C32.8945 32.6926 32.7806 33.2971 33.0734 33.7368L34.7076 36.1884C34.7295 36.2267 34.7351 36.3313 34.7184 36.3702C34.7071 36.392 34.6974 36.4144 34.6889 36.4376L32.0913 43.6878H31.6153V27.0169C31.9135 26.8728 32.1991 26.7067 32.4701 26.521L34.7811 31.3686ZM30.5266 35.5465L30.0012 36.3033L29.496 33.7045L30.1106 32.8026L30.5266 33.0876V35.5465ZM25.466 33.0453L25.8649 32.778L26.4966 33.7048L25.9917 36.3033L25.4663 35.5465V33.0453H25.466ZM27.5241 33.2792L26.7694 32.1715L27.993 31.3507L29.2127 32.1871L28.4682 33.2792C28.3866 33.3992 28.3562 33.5469 28.3837 33.6895L29.1345 37.5516L27.9962 39.1915L26.8578 37.5516L27.6086 33.6895C27.6364 33.5469 27.606 33.3992 27.5241 33.2792ZM30.5266 31.7678L28.3766 30.2938C28.3971 30.2736 28.4166 30.2527 28.4339 30.2291L30.5028 27.4322C30.5107 27.4302 30.5186 27.428 30.5263 27.426V31.7678H30.5266ZM27.9964 28.9902L27.0112 27.6585C27.077 27.6604 27.1428 27.6619 27.2088 27.6619H28.7838C28.8498 27.6619 28.9156 27.6604 28.9814 27.6585L27.9964 28.9902ZM25.4896 27.4322L27.5587 30.2291C27.5757 30.2524 27.595 30.2734 27.6154 30.2929L25.466 31.7343V27.4257C25.474 27.428 25.4819 27.4302 25.4896 27.4322ZM25.466 37.4558L27.549 40.4563C27.6508 40.6028 27.8178 40.6902 27.9962 40.6902C28.1748 40.6902 28.3418 40.6028 28.4436 40.4563L30.5263 37.4558V43.6878H25.466V37.4558ZM36.4104 20.8143C36.4104 21.1985 36.0952 21.5109 35.7076 21.5109H35.2917C35.2974 21.3992 35.3005 21.2869 35.3005 21.1738V18.6156H35.7076C36.0952 18.6156 36.4104 18.928 36.4104 19.3122V20.8143ZM23.8165 8.70377H28.0299C29.7829 8.70377 31.209 10.1219 31.209 11.865V12.174C30.2391 11.8032 29.1472 11.6062 27.9964 11.6062C26.001 11.6062 24.1814 12.1947 22.8721 13.2636C21.5628 14.3325 20.8208 15.7994 20.7077 17.5269H20.6374V11.865C20.6374 10.1219 22.0635 8.70377 23.8165 8.70377ZM20.285 21.5109C19.8977 21.5109 19.5824 21.1985 19.5824 20.8143V19.3122C19.5824 18.928 19.8974 18.6156 20.285 18.6156H20.6921V21.1738C20.6921 21.2869 20.6952 21.3992 20.7009 21.5109H20.285ZM21.7808 21.1738V17.9956C21.7808 15.3571 23.7028 12.6949 27.9964 12.6949C32.2898 12.6949 34.2118 15.3571 34.2118 17.9956V21.1738C34.2118 24.151 31.7769 26.5732 28.7838 26.5732H27.2088C24.2157 26.5732 21.7808 24.151 21.7808 21.1738ZM16.4637 31.1636C16.4637 29.6502 17.7038 28.4189 19.2283 28.4189H21.4114L20.2161 30.9263C19.9975 31.3751 20.1469 31.9518 20.556 32.239L21.9549 33.2206L20.378 35.5862C20.1458 35.935 20.1103 36.4518 20.2887 36.8332L20.9643 38.7183C21.0655 39.0012 21.3771 39.1487 21.6603 39.0472C21.9433 38.9457 22.0904 38.6341 21.9892 38.3511L21.3037 36.4376C21.2952 36.4144 21.2864 36.3937 21.275 36.3719C21.2575 36.3313 21.2631 36.2267 21.2838 36.1899L22.9189 33.7368C23.212 33.2974 23.0981 32.6926 22.6654 32.389L21.2113 31.3686L23.5225 26.521C23.7933 26.7067 24.0791 26.8728 24.3773 27.0169V43.6878H23.901L22.8732 40.8186C22.7717 40.5356 22.4602 40.3885 22.1772 40.4897C21.894 40.5912 21.7468 40.9028 21.8483 41.1857L22.7448 43.6878H18.4529V35.2157C18.4529 34.9149 18.2093 34.6713 17.9085 34.6713C17.608 34.6713 17.3642 34.9149 17.3642 35.2157V43.6878H16.4637V31.1636ZM39.0534 43.6878H33.2478L35.7039 36.8332C35.882 36.4518 35.8468 35.935 35.6143 35.5862L34.0377 33.2206L35.4363 32.239C35.8457 31.9515 35.9948 31.3751 35.7782 30.9306L34.5809 28.4189H36.2885C37.813 28.4189 39.0534 29.6502 39.0534 31.1636V43.6878ZM43.2866 39.754H44.9926C44.9932 39.8402 44.9872 39.9272 44.973 40.0142C44.9047 40.4333 44.6759 40.8007 44.3289 41.0488C44.0544 41.2453 43.7309 41.3493 43.3938 41.3493C42.8787 41.3493 42.3919 41.1018 42.0919 40.6873L40.1421 37.9959V32.5517L41.8614 34.9251C41.8637 35.159 41.9229 35.3849 42.0315 35.5857C41.9207 35.7904 41.8608 36.0214 41.8608 36.2604V36.6214C41.8608 36.8607 41.9207 37.0917 42.0315 37.2964C41.9207 37.5011 41.8608 37.7319 41.8608 37.9712V38.3321C41.8608 39.1161 42.5005 39.754 43.2866 39.754ZM42.4355 22.852H46.229V24.1893H42.4355V22.852ZM44.3323 29.4673C43.2864 29.4673 42.4355 28.623 42.4355 27.5856V25.278H46.229V27.5856C46.229 28.623 45.3782 29.4673 44.3323 29.4673Z" fill="white"/>
<circle cx="28.9299" cy="28.1757" r="27.6757" stroke="white"/>
</svg>

<svg width="58" height="57" viewBox="0 0 58 57" fill="none" xmlns="http://www.w3.org/2000/svg"><path d="M27.8 21.65h.734a.544.544 0 100-1.09h-.53v-1.523a.544.544 0 10-1.09 0v1.729c0 .487.398.883.886.883zm-2.529-1.87v-1.228a.544.544 0 10-1.089 0v1.227a.545.545 0 001.09 0zm.488-2.179a.543.543 0 00.77-.002.544.544 0 00-.003-.77 2.558 2.558 0 00-3.598 0 .544.544 0 10.767.772 1.467 1.467 0 012.064 0zm5.467.407a.544.544 0 00-.545.544v1.227a.545.545 0 001.089 0v-1.227c0-.3-.244-.544-.544-.544zm-1.032-.407a1.467 1.467 0 012.064 0 .543.543 0 10.767-.772 2.559 2.559 0 00-3.598 0 .545.545 0 00.767.772zm-.191 4.417H25.99c-.56 0-1.015.454-1.015 1.012a3.018 3.018 0 003.022 3.007 3.018 3.018 0 003.022-3.007c0-.558-.455-1.012-1.015-1.012zm-2.007 2.93c-1.04 0-1.89-.819-1.931-1.841h3.863a1.929 1.929 0 01-1.932 1.841z" fill="#fff"/><path d="M47.318 27.586v-4.853a.972.972 0 00-.973-.97H42.32a.972.972 0 00-.973.97v4.853a2.979 2.979 0 002.44 2.92v2.622h-.5c-.415 0-.788.178-1.049.461l-2.132-2.943a3.852 3.852 0 00-3.817-3.316h-2.227l-.725-1.52a6.48 6.48 0 001.804-3.21h.567a1.79 1.79 0 001.791-1.786v-1.502c0-.723-.434-1.346-1.055-1.627v-1.723a.544.544 0 00-1.089 0v1.565h-.07c-.113-1.728-.855-3.195-2.164-4.263a6.502 6.502 0 00-.823-.57v-.829c0-.44-.068-.865-.193-1.264.202-.06.416-.093.637-.093h.359a2.25 2.25 0 012.255 2.24v.601a.544.544 0 001.088 0v-.6a3.34 3.34 0 00-3.343-3.33h-.359c-.385 0-.755.067-1.1.187a4.272 4.272 0 00-3.612-1.99h-4.213c-2.354 0-4.268 1.906-4.268 4.249v5.82a1.787 1.787 0 00-1.055 1.627v1.502a1.79 1.79 0 001.791 1.786h.566c.28 1.242.92 2.35 1.804 3.21l-.725 1.52h-2.702c-2.124 0-3.853 1.72-3.853 3.834v12.699c0 .504.41.913.914.913h22.94c.503 0 .913-.41.913-.913v-4.011l1.068 1.474a2.702 2.702 0 003.752.608 2.658 2.658 0 001.118-2.294c.51-.217.867-.721.867-1.308v-.668a.544.544 0 00-1.088 0v.668a.336.336 0 01-.337.333h-2.235a.336.336 0 01-.337-.333v-.36c0-.1.044-.193.12-.256a.544.544 0 000-.84.331.331 0 01-.12-.255v-.36c0-.1.044-.192.12-.256a.544.544 0 000-.839.332.332 0 01-.12-.255v-.361c0-.184.15-.333.337-.333h2.234c.186 0 .338.149.338.333v.573a.544.544 0 001.088 0v-.573c0-.784-.64-1.422-1.426-1.422h-.644v-2.622a2.979 2.979 0 002.44-2.92zM34.78 31.369l-1.453 1.02a.988.988 0 00-.255 1.348l1.635 2.451a.294.294 0 01.01.182.578.578 0 00-.03.068l-2.597 7.25h-.476V27.017c.299-.144.584-.31.855-.496l2.311 4.848zm-4.254 4.178l-.526.756-.505-2.598.615-.902.416.285v2.459zm-5.061-2.502l.399-.267.632.927-.505 2.598-.526-.756v-2.502zm2.058.234l-.755-1.108 1.224-.82 1.22.836-.745 1.092a.546.546 0 00-.084.41l.75 3.863-1.138 1.64-1.138-1.64.75-3.862a.543.543 0 00-.084-.41zm3.003-1.511l-2.15-1.474a.51.51 0 00.057-.065l2.069-2.797.023-.006v4.342zm-2.53-2.778l-.986-1.331.198.003h1.575c.066 0 .132-.002.197-.003l-.985 1.331zm-2.507-1.558l2.069 2.797a.48.48 0 00.056.064l-2.149 1.441v-4.308a.953.953 0 00.024.006zm-.024 10.024l2.083 3a.545.545 0 00.895 0l2.082-3v6.232h-5.06v-6.232zM36.41 20.814a.7.7 0 01-.702.697h-.416a6.61 6.61 0 00.008-.337v-2.558h.408a.7.7 0 01.702.696v1.502zM23.817 8.704h4.213c1.753 0 3.179 1.418 3.179 3.161v.309a9.013 9.013 0 00-3.213-.568c-1.995 0-3.815.589-5.124 1.658-1.31 1.069-2.051 2.535-2.164 4.263h-.07v-5.662a3.173 3.173 0 013.178-3.161zM20.285 21.51a.7.7 0 01-.703-.697v-1.502a.7.7 0 01.703-.696h.407v2.558c0 .113.003.225.009.337h-.416zm1.496-.337v-3.178c0-2.639 1.922-5.301 6.215-5.301 4.294 0 6.216 2.662 6.216 5.3v3.179c0 2.977-2.435 5.4-5.428 5.4h-1.575c-2.993 0-5.428-2.423-5.428-5.4zm-5.317 9.99c0-1.514 1.24-2.745 2.764-2.745h2.183l-1.195 2.507a1.067 1.067 0 00.34 1.313l1.399.982-1.577 2.365a1.342 1.342 0 00-.09 1.247l.676 1.885a.544.544 0 101.025-.367l-.685-1.913a.533.533 0 00-.029-.066.296.296 0 01.009-.182l1.635-2.453a.988.988 0 00-.254-1.348l-1.454-1.02 2.312-4.848c.27.186.556.352.854.496v16.67h-.476l-1.028-2.868a.545.545 0 00-1.025.367l.897 2.502h-4.292v-8.472a.544.544 0 10-1.089 0v8.472h-.9V31.164zm22.59 12.524h-5.806l2.456-6.855a1.342 1.342 0 00-.09-1.247l-1.576-2.365 1.398-.982c.41-.287.559-.864.342-1.308l-1.197-2.512h1.707c1.525 0 2.765 1.231 2.765 2.745v12.524zm4.233-3.934h1.706a1.575 1.575 0 01-.664 1.295 1.61 1.61 0 01-2.237-.361l-1.95-2.692v-5.444l1.72 2.373c.002.234.06.46.17.66a1.416 1.416 0 00-.171.675v.361c0 .24.06.47.17.675-.11.205-.17.436-.17.675v.361c0 .784.64 1.422 1.426 1.422zm-.852-16.902h3.794v1.337h-3.794v-1.337zm1.897 6.615a1.892 1.892 0 01-1.897-1.881v-2.308h3.794v2.308a1.89 1.89 0 01-1.897 1.881z" fill="#fff"/><circle cx="28.93" cy="28.176" r="27.676" stroke="#fff"/></svg>
